apply_estimated_lut.cube
# Created by Advanced Python LUT Estimator
TITLE "Estimated LUT"
LUT_3D_SIZE 33
0.000000 0.066667 0.098039
0.000000 0.070588 0.129412
0.000000 0.062745 0.105882
0.000000 0.062745 0.152941
0.000000 0.078431 0.172549
0.000000 0.070588 0.176471
0.015686 0.117647 0.223529
0.015686 0.117647 0.223529
0.000000 0.101961 0.274510
0.000000 0.101961 0.274510
0.000000 0.101961 0.274510
0.000000 0.101961 0.274510
0.000000 0.101961 0.274510
0.000000 0.101961 0.274510
0.000000 0.168627 0.309804
0.000000 0.168627 0.309804
0.000000 0.168627 0.309804
0.000000 0.168627 0.309804
0.054902 0.235294 0.376471
0.054902 0.235294 0.376471
0.054902 0.235294 0.376471
0.054902 0.235294 0.376471
0.054902 0.235294 0.376471
0.054902 0.235294 0.376471
0.054902 0.235294 0.376471
0.054902 0.235294 0.376471
0.054902 0.235294 0.376471
0.054902 0.235294 0.376471
0.054902 0.235294 0.376471
0.054902 0.235294 0.376471
0.054902 0.235294 0.376471
0.054902 0.235294 0.376471
0.054902 0.235294 0.376471
0.000000 0.101961 0.082353
0.000000 0.082353 0.113725
0.000000 0.086275 0.137255
0.000000 0.090196 0.156863
0.000000 0.086275 0.180392
0.000000 0.086275 0.168627
0.000000 0.109804 0.207843
0.000000 0.109804 0.207843
0.000000 0.101961 0.274510
0.000000 0.101961 0.274510
0.000000 0.101961 0.274510
0.000000 0.101961 0.274510
0.000000 0.168627 0.309804
0.000000 0.168627 0.309804
0.000000 0.168627 0.309804
0.000000 0.168627 0.309804
0.000000 0.168627 0.309804
0.054902 0.235294 0.376471
0.054902 0.235294 0.376471
0.054902 0.235294 0.376471
0.054902 0.235294 0.376471
0.054902 0.235294 0.376471
0.054902 0.235294 0.376471
0.054902 0.235294 0.376471
0.054902 0.235294 0.376471
0.054902 0.235294 0.376471
0.054902 0.235294 0.376471
0.054902 0.235294 0.376471
0.054902 0.235294 0.376471
0.054902 0.235294 0.376471
0.054902 0.235294 0.376471
0.054902 0.235294 0.376471
0.054902 0.235294 0.376471
0.000000 0.129412 0.105882
0.000000 0.105882 0.125490
0.003922 0.113725 0.156863
0.000000 0.113725 0.180392
0.000000 0.117647 0.184314
0.003922 0.109804 0.211765
0.000000 0.121569 0.227451
0.007843 0.121569 0.239216
0.000000 0.141176 0.254902
0.000000 0.101961 0.274510
0.000000 0.101961 0.274510
0.000000 0.168627 0.309804
0.000000 0.168627 0.309804
0.000000 0.168627 0.309804
0.000000 0.168627 0.309804
0.000000 0.168627 0.309804
0.000000 0.168627 0.309804
0.054902 0.235294 0.376471
0.054902 0.235294 0.376471
0.054902 0.235294 0.376471
0.054902 0.235294 0.376471
0.054902 0.235294 0.376471
0.054902 0.235294 0.376471
0.054902 0.235294 0.376471
0.054902 0.235294 0.376471
0.054902 0.235294 0.376471
0.054902 0.235294 0.376471
0.054902 0.235294 0.376471
0.054902 0.235294 0.376471
0.054902 0.235294 0.376471
0.054902 0.235294 0.376471
0.054902 0.235294 0.376471
0.054902 0.235294 0.376471
0.000000 0.152941 0.105882
0.000000 0.149020 0.145098
0.000000 0.129412 0.156863
0.000000 0.137255 0.188235
0.000000 0.145098 0.196078
0.000000 0.133333 0.200000
0.000000 0.125490 0.211765
0.000000 0.129412 0.254902
0.000000 0.141176 0.258824
0.000000 0.160784 0.290196
0.000000 0.168627 0.309804
0.000000 0.168627 0.309804
0.000000 0.168627 0.309804
0.000000 0.168627 0.309804
0.000000 0.168627 0.309804
0.000000 0.168627 0.309804
0.054902 0.235294 0.376471
0.054902 0.235294 0.376471
0.054902 0.235294 0.376471
0.054902 0.235294 0.376471
0.054902 0.235294 0.376471
0.054902 0.235294 0.376471
0.054902 0.235294 0.376471
0.054902 0.235294 0.376471
0.054902 0.235294 0.376471
0.054902 0.235294 0.376471
0.054902 0.235294 0.376471
0.054902 0.235294 0.376471
0.054902 0.235294 0.376471
0.054902 0.235294 0.376471
0.054902 0.235294 0.376471
0.054902 0.235294 0.376471
0.054902 0.235294 0.376471
0.000000 0.176471 0.125490
0.000000 0.168627 0.133333
0.000000 0.164706 0.160784
0.000000 0.152941 0.176471
0.000000 0.149020 0.200000
0.000000 0.160784 0.223529
0.000000 0.168627 0.235294
0.000000 0.172549 0.290196
0.000000 0.168627 0.274510
0.000000 0.164706 0.294118
0.000000 0.168627 0.309804
0.000000 0.168627 0.309804
0.000000 0.168627 0.309804
0.000000 0.168627 0.309804
0.000000 0.168627 0.309804
0.000000 0.168627 0.309804
0.054902 0.235294 0.376471
0.054902 0.235294 0.376471
0.054902 0.235294 0.376471
0.054902 0.235294 0.376471
0.054902 0.235294 0.376471
0.054902 0.235294 0.376471
0.054902 0.235294 0.376471
0.054902 0.235294 0.376471
0.054902 0.235294 0.376471
0.054902 0.235294 0.376471
0.054902 0.235294 0.376471
0.054902 0.235294 0.376471
0.054902 0.235294 0.376471
0.054902 0.235294 0.376471
0.019608 0.431373 0.505882
0.019608 0.431373 0.505882
0.141176 0.509804 0.607843
0.000000 0.180392 0.101961
0.000000 0.184314 0.141176
0.000000 0.180392 0.176471
0.000000 0.184314 0.184314
0.000000 0.172549 0.196078
0.003922 0.168627 0.211765
0.000000 0.184314 0.254902
0.000000 0.184314 0.250980
0.000000 0.192157 0.286275
0.000000 0.188235 0.298039
0.000000 0.180392 0.313726
0.000000 0.168627 0.309804
0.000000 0.168627 0.309804
0.000000 0.168627 0.309804
0.000000 0.239216 0.360784
0.000000 0.266667 0.392157
0.054902 0.235294 0.376471
0.054902 0.235294 0.376471
0.054902 0.235294 0.376471
0.054902 0.235294 0.376471
0.054902 0.235294 0.376471
0.054902 0.235294 0.376471
0.054902 0.235294 0.376471
0.054902 0.235294 0.376471
0.054902 0.235294 0.376471
0.054902 0.235294 0.376471
0.054902 0.235294 0.376471
0.003922 0.372549 0.482353
0.003922 0.372549 0.482353
0.019608 0.431373 0.505882
0.019608 0.431373 0.505882
0.141176 0.509804 0.607843
0.141176 0.509804 0.607843
0.000000 0.184314 0.101961
0.000000 0.239216 0.133333
0.000000 0.227451 0.160784
0.000000 0.211765 0.184314
0.000000 0.211765 0.196078
0.000000 0.200000 0.223529
0.000000 0.207843 0.235294
0.000000 0.211765 0.282353
0.000000 0.196078 0.274510
0.000000 0.211765 0.313726
0.000000 0.207843 0.329412
0.000000 0.200000 0.333333
0.003922 0.227451 0.345098
0.000000 0.239216 0.360784
0.000000 0.266667 0.392157
0.000000 0.266667 0.392157
0.039216 0.270588 0.403922
0.039216 0.270588 0.403922
0.039216 0.270588 0.403922
0.054902 0.235294 0.376471
0.054902 0.235294 0.376471
0.054902 0.235294 0.376471
0.054902 0.235294 0.376471
0.003922 0.372549 0.482353
0.003922 0.372549 0.482353
0.003922 0.372549 0.482353
0.003922 0.372549 0.482353
0.019608 0.431373 0.505882
0.019608 0.431373 0.505882
0.019608 0.431373 0.505882
0.141176 0.509804 0.607843
0.141176 0.509804 0.607843
0.141176 0.509804 0.607843
0.000000 0.274510 0.145098
0.000000 0.266667 0.141176
0.000000 0.274510 0.164706
0.000000 0.247059 0.184314
0.000000 0.254902 0.227451
0.000000 0.235294 0.219608
0.000000 0.227451 0.254902
0.003922 0.219608 0.262745
0.000000 0.227451 0.294118
0.000000 0.219608 0.294118
0.000000 0.223529 0.325490
0.007843 0.223529 0.333333
0.015686 0.219608 0.356863
0.000000 0.266667 0.392157
0.000000 0.266667 0.392157
0.039216 0.270588 0.403922
0.039216 0.270588 0.403922
0.039216 0.270588 0.403922
0.039216 0.270588 0.403922
0.039216 0.270588 0.403922
0.039216 0.270588 0.403922
0.003922 0.372549 0.482353
0.003922 0.372549 0.482353
0.003922 0.372549 0.482353
0.003922 0.372549 0.482353
0.003922 0.372549 0.482353
0.019608 0.431373 0.505882
0.019608 0.431373 0.505882
0.019608 0.431373 0.505882
0.019608 0.431373 0.505882
0.141176 0.509804 0.607843
0.141176 0.509804 0.607843
0.141176 0.509804 0.607843
0.000000 0.274510 0.145098
0.000000 0.274510 0.145098
0.000000 0.286275 0.168627
0.000000 0.286275 0.184314
0.000000 0.262745 0.227451
0.000000 0.262745 0.235294
0.000000 0.247059 0.254902
0.000000 0.247059 0.278431
0.000000 0.250980 0.298039
0.000000 0.258824 0.309804
0.000000 0.243137 0.321569
0.000000 0.258824 0.349020
0.000000 0.254902 0.376471
0.000000 0.266667 0.392157
0.039216 0.270588 0.403922
0.039216 0.270588 0.403922
0.039216 0.270588 0.403922
0.039216 0.270588 0.403922
0.039216 0.270588 0.403922
0.003922 0.372549 0.482353
0.003922 0.372549 0.482353
0.003922 0.372549 0.482353
0.003922 0.372549 0.482353
0.003922 0.372549 0.482353
0.019608 0.431373 0.505882
0.019608 0.431373 0.505882
0.019608 0.431373 0.505882
0.019608 0.431373 0.505882
0.019608 0.431373 0.505882
0.141176 0.509804 0.607843
0.141176 0.509804 0.607843
0.141176 0.509804 0.607843
0.141176 0.509804 0.607843
0.000000 0.274510 0.145098
0.000000 0.274510 0.145098
0.000000 0.286275 0.145098
0.000000 0.274510 0.207843
0.000000 0.301961 0.207843
0.000000 0.294118 0.231373
0.003922 0.270588 0.262745
0.000000 0.266667 0.278431
0.000000 0.278431 0.309804
0.000000 0.274510 0.321569
0.000000 0.278431 0.337255
0.003922 0.274510 0.349020
0.000000 0.282353 0.364706
0.000000 0.274510 0.396078
0.039216 0.270588 0.403922
0.039216 0.270588 0.403922
0.039216 0.270588 0.403922
0.039216 0.270588 0.403922
0.003922 0.372549 0.482353
0.003922 0.372549 0.482353
0.003922 0.372549 0.482353
0.003922 0.372549 0.482353
0.003922 0.372549 0.482353
0.019608 0.431373 0.505882
0.019608 0.431373 0.505882
0.019608 0.431373 0.505882
0.019608 0.431373 0.505882
0.058824 0.482353 0.584314
0.141176 0.509804 0.607843
0.141176 0.509804 0.607843
0.141176 0.509804 0.607843
0.141176 0.509804 0.607843
0.141176 0.509804 0.607843
0.000000 0.298039 0.121569
0.000000 0.298039 0.121569
0.000000 0.298039 0.121569
0.000000 0.309804 0.219608
0.000000 0.309804 0.219608
0.007843 0.321569 0.235294
0.000000 0.317647 0.270588
0.000000 0.309804 0.290196
0.000000 0.321569 0.309804
0.003922 0.298039 0.309804
0.000000 0.298039 0.337255
0.000000 0.313726 0.356863
0.000000 0.305882 0.392157
0.000000 0.317647 0.407843
0.027451 0.298039 0.423529
0.000000 0.360784 0.447059
0.011765 0.368627 0.482353
0.011765 0.368627 0.482353
0.003922 0.372549 0.482353
0.003922 0.372549 0.482353
0.003922 0.372549 0.482353
0.003922 0.372549 0.482353
0.019608 0.431373 0.505882
0.019608 0.431373 0.505882
0.019608 0.431373 0.505882
0.019608 0.431373 0.505882
0.058824 0.482353 0.584314
0.058824 0.482353 0.584314
0.141176 0.509804 0.607843
0.141176 0.509804 0.607843
0.141176 0.509804 0.607843
0.141176 0.509804 0.607843
0.141176 0.509804 0.607843
0.000000 0.298039 0.121569
0.000000 0.298039 0.121569
0.000000 0.356863 0.180392
0.000000 0.356863 0.180392
0.000000 0.356863 0.180392
0.000000 0.333333 0.270588
0.019608 0.341176 0.266667
0.003922 0.345098 0.294118
0.000000 0.345098 0.325490
0.000000 0.341176 0.337255
0.003922 0.341176 0.352941
0.000000 0.341176 0.396078
0.015686 0.325490 0.388235
0.015686 0.321569 0.403922
0.003922 0.341176 0.439216
0.011765 0.368627 0.482353
0.011765 0.368627 0.482353
0.011765 0.368627 0.482353
0.000000 0.411765 0.490196
0.000000 0.411765 0.490196
0.000000 0.411765 0.490196
0.019608 0.431373 0.505882
0.019608 0.431373 0.505882
0.019608 0.431373 0.505882
0.019608 0.431373 0.505882
0.058824 0.482353 0.584314
0.058824 0.482353 0.584314
0.141176 0.509804 0.607843
0.141176 0.509804 0.607843
0.141176 0.509804 0.607843
0.141176 0.509804 0.607843
0.141176 0.509804 0.607843
0.141176 0.509804 0.607843
0.000000 0.298039 0.121569
0.000000 0.356863 0.180392
0.000000 0.356863 0.180392
0.000000 0.356863 0.180392
0.000000 0.356863 0.180392
0.000000 0.333333 0.270588
0.000000 0.368627 0.305882
0.000000 0.368627 0.305882
0.019608 0.364706 0.321569
0.000000 0.368627 0.337255
0.000000 0.364706 0.368627
0.000000 0.368627 0.388235
0.015686 0.356863 0.403922
0.000000 0.364706 0.447059
0.000000 0.360784 0.450980
0.007843 0.372549 0.482353
0.000000 0.400000 0.486275
0.000000 0.411765 0.490196
0.000000 0.411765 0.490196
0.000000 0.411765 0.490196
0.019608 0.431373 0.505882
0.019608 0.431373 0.505882
0.019608 0.431373 0.505882
0.043137 0.494118 0.568627
0.058824 0.482353 0.584314
0.058824 0.482353 0.584314
0.058824 0.482353 0.584314
0.141176 0.509804 0.607843
0.141176 0.509804 0.607843
0.141176 0.509804 0.607843
0.141176 0.509804 0.607843
0.141176 0.509804 0.607843
0.141176 0.509804 0.607843
0.000000 0.356863 0.180392
0.000000 0.356863 0.180392
0.000000 0.356863 0.180392
0.000000 0.356863 0.180392
0.000000 0.356863 0.180392
0.011765 0.352941 0.215686
0.000000 0.388235 0.309804
0.000000 0.388235 0.309804
0.000000 0.368627 0.321569
0.031373 0.384314 0.345098
0.007843 0.388235 0.360784
0.000000 0.403922 0.396078
0.000000 0.380392 0.403922
0.000000 0.392157 0.447059
0.000000 0.392157 0.458824
0.000000 0.388235 0.474510
0.000000 0.400000 0.486275
0.000000 0.411765 0.490196
0.000000 0.447059 0.521569
0.000000 0.447059 0.521569
0.019608 0.431373 0.505882
0.043137 0.494118 0.568627
0.043137 0.494118 0.568627
0.043137 0.494118 0.568627
0.058824 0.482353 0.584314
0.058824 0.482353 0.584314
0.141176 0.509804 0.607843
0.141176 0.509804 0.607843
0.141176 0.509804 0.607843
0.141176 0.509804 0.607843
0.141176 0.509804 0.607843
0.145098 0.564706 0.635294
0.145098 0.564706 0.635294
0.000000 0.356863 0.180392
0.000000 0.356863 0.180392
0.000000 0.356863 0.180392
0.000000 0.356863 0.180392
0.000000 0.356863 0.180392
0.000000 0.388235 0.309804
0.000000 0.388235 0.309804
0.000000 0.388235 0.309804
0.047059 0.403922 0.368627
0.047059 0.403922 0.368627
0.039216 0.403922 0.368627
0.023529 0.419608 0.376471
0.000000 0.423529 0.423529
0.003922 0.419608 0.443137
0.000000 0.423529 0.462745
0.007843 0.423529 0.490196
0.007843 0.411765 0.498039
0.000000 0.447059 0.521569
0.000000 0.447059 0.521569
0.000000 0.474510 0.529412
0.043137 0.494118 0.568627
0.043137 0.494118 0.568627
0.043137 0.494118 0.568627
0.043137 0.494118 0.568627
0.058824 0.482353 0.584314
0.058824 0.482353 0.584314
0.141176 0.509804 0.607843
0.145098 0.564706 0.635294
0.145098 0.564706 0.635294
0.145098 0.564706 0.635294
0.145098 0.564706 0.635294
0.145098 0.564706 0.635294
0.145098 0.564706 0.635294
0.000000 0.356863 0.180392
0.000000 0.356863 0.180392
0.000000 0.356863 0.180392
0.000000 0.356863 0.180392
0.011765 0.352941 0.215686
0.000000 0.388235 0.309804
0.000000 0.388235 0.309804
0.047059 0.403922 0.368627
0.047059 0.403922 0.368627
0.047059 0.403922 0.368627
0.000000 0.454902 0.403922
0.011765 0.462745 0.411765
0.000000 0.462745 0.419608
0.000000 0.454902 0.454902
0.011765 0.435294 0.454902
0.023529 0.447059 0.498039
0.015686 0.450980 0.509804
0.000000 0.462745 0.521569
0.000000 0.474510 0.529412
0.043137 0.494118 0.568627
0.043137 0.494118 0.568627
0.043137 0.494118 0.568627
0.043137 0.494118 0.568627
0.043137 0.494118 0.568627
0.105882 0.564706 0.635294
0.105882 0.564706 0.635294
0.145098 0.564706 0.635294
0.145098 0.564706 0.635294
0.145098 0.564706 0.635294
0.145098 0.564706 0.635294
0.145098 0.564706 0.635294
0.145098 0.564706 0.635294
0.145098 0.564706 0.635294
0.000000 0.356863 0.180392
0.000000 0.356863 0.180392
0.000000 0.356863 0.180392
0.000000 0.356863 0.180392
0.011765 0.352941 0.215686
0.054902 0.423529 0.317647
0.007843 0.443137 0.376471
0.007843 0.443137 0.376471
0.007843 0.443137 0.376471
0.047059 0.403922 0.368627
0.000000 0.454902 0.403922
0.000000 0.474510 0.435294
0.000000 0.501961 0.450980
0.000000 0.498039 0.466667
0.011765 0.486275 0.490196
0.011765 0.482353 0.501961
0.011765 0.482353 0.513726
0.000000 0.482353 0.529412
0.000000 0.517647 0.576471
0.000000 0.517647 0.576471
0.043137 0.494118 0.568627
0.043137 0.494118 0.568627
0.043137 0.494118 0.568627
0.105882 0.564706 0.635294
0.105882 0.564706 0.635294
0.086275 0.596078 0.650980
0.086275 0.596078 0.650980
0.086275 0.596078 0.650980
0.145098 0.564706 0.635294
0.145098 0.564706 0.635294
0.145098 0.564706 0.635294
0.145098 0.564706 0.635294
0.145098 0.564706 0.635294
0.000000 0.356863 0.180392
0.000000 0.356863 0.180392
0.000000 0.356863 0.180392
0.000000 0.356863 0.180392
0.054902 0.423529 0.317647
0.054902 0.423529 0.317647
0.007843 0.443137 0.376471
0.007843 0.443137 0.376471
0.007843 0.443137 0.376471
0.007843 0.443137 0.376471
0.047059 0.466667 0.403922
0.000000 0.501961 0.450980
0.000000 0.501961 0.450980
0.000000 0.509804 0.474510
0.003922 0.517647 0.486275
0.000000 0.525490 0.525490
0.003922 0.521569 0.533333
0.000000 0.529412 0.556863
0.000000 0.517647 0.576471
0.000000 0.517647 0.576471
0.039216 0.556863 0.603922
0.039216 0.556863 0.603922
0.105882 0.564706 0.635294
0.109804 0.596078 0.643137
0.086275 0.596078 0.650980
0.086275 0.596078 0.650980
0.086275 0.596078 0.650980
0.086275 0.596078 0.650980
0.086275 0.596078 0.650980
0.086275 0.596078 0.650980
0.105882 0.631373 0.678431
0.105882 0.631373 0.678431
0.105882 0.631373 0.678431
0.035294 0.407843 0.149020
0.035294 0.407843 0.149020
0.035294 0.407843 0.149020
0.054902 0.423529 0.317647
0.054902 0.423529 0.317647
0.007843 0.443137 0.376471
0.007843 0.443137 0.376471
0.007843 0.443137 0.376471
0.007843 0.443137 0.376471
0.047059 0.466667 0.403922
0.000000 0.501961 0.450980
0.000000 0.501961 0.450980
0.003922 0.517647 0.462745
0.000000 0.545098 0.498039
0.007843 0.521569 0.490196
0.007843 0.521569 0.490196
0.007843 0.552941 0.549020
0.015686 0.537255 0.552941
0.054902 0.537255 0.568627
0.039216 0.556863 0.603922
0.039216 0.556863 0.603922
0.039216 0.556863 0.603922
0.109804 0.596078 0.643137
0.109804 0.596078 0.643137
0.086275 0.596078 0.650980
0.086275 0.596078 0.650980
0.086275 0.596078 0.650980
0.086275 0.596078 0.650980
0.086275 0.596078 0.650980
0.105882 0.631373 0.678431
0.105882 0.631373 0.678431
0.105882 0.631373 0.678431
0.203922 0.752941 0.803922
0.035294 0.407843 0.149020
0.035294 0.407843 0.149020
0.035294 0.407843 0.149020
0.054902 0.423529 0.317647
0.054902 0.423529 0.317647
0.007843 0.443137 0.376471
0.007843 0.443137 0.376471
0.007843 0.443137 0.376471
0.007843 0.443137 0.376471
0.047059 0.466667 0.403922
0.000000 0.490196 0.435294
0.000000 0.490196 0.435294
0.000000 0.545098 0.498039
0.000000 0.545098 0.498039
0.000000 0.545098 0.498039
0.019608 0.572549 0.541176
0.019608 0.572549 0.541176
0.019608 0.545098 0.541176
0.054902 0.560784 0.580392
0.039216 0.556863 0.603922
0.039216 0.556863 0.603922
0.109804 0.596078 0.643137
0.109804 0.596078 0.643137
0.109804 0.596078 0.643137
0.086275 0.596078 0.650980
0.086275 0.596078 0.650980
0.086275 0.596078 0.650980
0.086275 0.596078 0.650980
0.105882 0.631373 0.678431
0.105882 0.631373 0.678431
0.105882 0.631373 0.678431
0.203922 0.752941 0.803922
0.203922 0.752941 0.803922
0.035294 0.407843 0.149020
0.035294 0.407843 0.149020
0.054902 0.423529 0.317647
0.043137 0.470588 0.317647
0.007843 0.443137 0.376471
0.007843 0.443137 0.376471
0.007843 0.443137 0.376471
0.007843 0.443137 0.376471
0.047059 0.466667 0.403922
0.000000 0.490196 0.435294
0.000000 0.490196 0.435294
0.000000 0.545098 0.498039
0.000000 0.545098 0.498039
0.000000 0.545098 0.498039
0.019608 0.572549 0.541176
0.019608 0.572549 0.541176
0.019608 0.545098 0.541176
0.019608 0.545098 0.541176
0.054902 0.560784 0.580392
0.054902 0.560784 0.580392
0.074510 0.576471 0.627451
0.109804 0.596078 0.643137
0.109804 0.596078 0.643137
0.109804 0.596078 0.643137
0.109804 0.596078 0.643137
0.086275 0.596078 0.650980
0.105882 0.631373 0.678431
0.105882 0.631373 0.678431
0.105882 0.631373 0.678431
0.105882 0.631373 0.678431
0.203922 0.752941 0.803922
0.203922 0.752941 0.803922
0.203922 0.752941 0.803922
0.035294 0.407843 0.149020
0.035294 0.407843 0.149020
0.043137 0.470588 0.317647
0.043137 0.470588 0.317647
0.007843 0.443137 0.376471
0.007843 0.443137 0.376471
0.007843 0.443137 0.376471
0.007843 0.443137 0.376471
0.047059 0.466667 0.403922
0.000000 0.490196 0.435294
0.000000 0.545098 0.498039
0.000000 0.545098 0.498039
0.000000 0.545098 0.498039
0.000000 0.545098 0.498039
0.019608 0.572549 0.541176
0.019608 0.572549 0.541176
0.054902 0.650980 0.600000
0.054902 0.650980 0.600000
0.054902 0.650980 0.600000
0.054902 0.650980 0.600000
0.074510 0.576471 0.627451
0.109804 0.596078 0.643137
0.109804 0.596078 0.643137
0.109804 0.596078 0.643137
0.109804 0.596078 0.643137
0.105882 0.631373 0.678431
0.105882 0.631373 0.678431
0.105882 0.631373 0.678431
0.105882 0.631373 0.678431
0.203922 0.752941 0.803922
0.203922 0.752941 0.803922
0.203922 0.752941 0.803922
0.203922 0.752941 0.803922
0.035294 0.407843 0.149020
0.035294 0.407843 0.149020
0.043137 0.470588 0.317647
0.043137 0.470588 0.317647
0.007843 0.443137 0.376471
0.007843 0.443137 0.376471
0.007843 0.443137 0.376471
0.047059 0.466667 0.403922
0.000000 0.490196 0.435294
0.000000 0.545098 0.498039
0.000000 0.545098 0.498039
0.000000 0.545098 0.498039
0.031373 0.588235 0.533333
0.031373 0.588235 0.533333
0.031373 0.588235 0.533333
0.054902 0.650980 0.600000
0.054902 0.650980 0.600000
0.054902 0.650980 0.600000
0.054902 0.650980 0.600000
0.054902 0.650980 0.600000
0.054902 0.650980 0.600000
0.109804 0.596078 0.643137
0.109804 0.596078 0.643137
0.109804 0.596078 0.643137
0.105882 0.631373 0.678431
0.149020 0.674510 0.709804
0.149020 0.674510 0.709804
0.149020 0.674510 0.709804
0.149020 0.674510 0.709804
0.203922 0.752941 0.803922
0.203922 0.752941 0.803922
0.203922 0.752941 0.803922
0.203922 0.752941 0.803922
0.117647 0.494118 0.215686
0.117647 0.494118 0.215686
0.043137 0.470588 0.317647
0.082353 0.560784 0.376471
0.082353 0.560784 0.376471
0.082353 0.560784 0.376471
0.082353 0.560784 0.376471
0.047059 0.466667 0.403922
0.000000 0.545098 0.498039
0.000000 0.545098 0.498039
0.000000 0.545098 0.498039
0.031373 0.588235 0.533333
0.031373 0.588235 0.533333
0.031373 0.588235 0.533333
0.054902 0.650980 0.600000
0.054902 0.650980 0.600000
0.054902 0.650980 0.600000
0.054902 0.650980 0.600000
0.054902 0.650980 0.600000
0.054902 0.650980 0.600000
0.054902 0.650980 0.600000
0.109804 0.596078 0.643137
0.149020 0.674510 0.709804
0.149020 0.674510 0.709804
0.149020 0.674510 0.709804
0.149020 0.674510 0.709804
0.149020 0.674510 0.709804
0.149020 0.674510 0.709804
0.203922 0.752941 0.803922
0.203922 0.752941 0.803922
0.203922 0.752941 0.803922
0.203922 0.752941 0.803922
0.203922 0.752941 0.803922
0.117647 0.494118 0.215686
0.117647 0.494118 0.215686
0.082353 0.560784 0.376471
0.082353 0.560784 0.376471
0.082353 0.560784 0.376471
0.082353 0.560784 0.376471
0.082353 0.560784 0.376471
0.082353 0.560784 0.376471
0.000000 0.545098 0.498039
0.031373 0.588235 0.533333
0.031373 0.588235 0.533333
0.031373 0.588235 0.533333
0.031373 0.588235 0.533333
0.031373 0.588235 0.533333
0.054902 0.650980 0.600000
0.054902 0.650980 0.600000
0.054902 0.650980 0.600000
0.054902 0.650980 0.600000
0.054902 0.650980 0.600000
0.054902 0.650980 0.600000
0.125490 0.694118 0.666667
0.125490 0.694118 0.666667
0.149020 0.674510 0.709804
0.149020 0.674510 0.709804
0.149020 0.674510 0.709804
0.149020 0.674510 0.709804
0.149020 0.674510 0.709804
0.203922 0.752941 0.803922
0.203922 0.752941 0.803922
0.203922 0.752941 0.803922
0.203922 0.752941 0.803922
0.203922 0.752941 0.803922
0.203922 0.752941 0.803922
0.117647 0.494118 0.215686
0.082353 0.560784 0.376471
0.082353 0.560784 0.376471
0.082353 0.560784 0.376471
0.082353 0.560784 0.376471
0.082353 0.560784 0.376471
0.082353 0.560784 0.376471
0.082353 0.560784 0.376471
0.031373 0.588235 0.533333
0.031373 0.588235 0.533333
0.031373 0.588235 0.533333
0.031373 0.588235 0.533333
0.031373 0.588235 0.533333
0.054902 0.650980 0.600000
0.054902 0.650980 0.600000
0.054902 0.650980 0.600000
0.054902 0.650980 0.600000
0.054902 0.650980 0.600000
0.054902 0.650980 0.600000
0.125490 0.694118 0.666667
0.125490 0.694118 0.666667
0.125490 0.694118 0.666667
0.149020 0.674510 0.709804
0.149020 0.674510 0.709804
0.149020 0.674510 0.709804
0.149020 0.674510 0.709804
0.149020 0.674510 0.709804
0.203922 0.752941 0.803922
0.203922 0.752941 0.803922
0.203922 0.752941 0.803922
0.203922 0.752941 0.803922
0.203922 0.752941 0.803922
0.203922 0.752941 0.803922
0.117647 0.494118 0.215686
0.082353 0.560784 0.376471
0.082353 0.560784 0.376471
0.082353 0.560784 0.376471
0.082353 0.560784 0.376471
0.082353 0.560784 0.376471
0.082353 0.560784 0.376471
0.031373 0.588235 0.533333
0.031373 0.588235 0.533333
0.031373 0.588235 0.533333
0.031373 0.588235 0.533333
0.031373 0.588235 0.533333
0.031373 0.588235 0.533333
0.054902 0.650980 0.600000
0.054902 0.650980 0.600000
0.054902 0.650980 0.600000
0.054902 0.650980 0.600000
0.054902 0.650980 0.600000
0.125490 0.694118 0.666667
0.125490 0.694118 0.666667
0.125490 0.694118 0.666667
0.125490 0.694118 0.666667
0.149020 0.674510 0.709804
0.149020 0.674510 0.709804
0.149020 0.674510 0.709804
0.149020 0.674510 0.709804
0.203922 0.752941 0.803922
