apply_estimated_lut.cube
# Created by Advanced Python LUT Estimator
TITLE "Estimated LUT"
LUT_3D_SIZE 5
0.000000 0.066667 0.098039
0.000000 0.101961 0.274510
0.000000 0.168627 0.309804
0.054902 0.235294 0.376471
0.054902 0.235294 0.376471
0.000000 0.274510 0.145098
0.000000 0.250980 0.298039
0.039216 0.270588 0.403922
0.019608 0.431373 0.505882
0.141176 0.509804 0.607843
0.000000 0.356863 0.180392
0.007843 0.443137 0.376471
0.011765 0.482353 0.513726
0.105882 0.564706 0.635294
0.145098 0.564706 0.635294
0.117647 0.494118 0.215686
0.000000 0.545098 0.498039
0.054902 0.650980 0.600000
0.149020 0.674510 0.709804
0.203922 0.752941 0.803922
0.082353 0.560784 0.376471
0.101961 0.635294 0.580392
0.125490 0.694118 0.666667
0.164706 0.760784 0.701961
0.203922 0.752941 0.803922
0.180392 0.047059 0.113725
0.160784 0.082353 0.282353
0.168627 0.211765 0.388235
0.054902 0.235294 0.376471
0.235294 0.427451 0.545098
0.156863 0.274510 0.000000
0.164706 0.258824 0.274510
0.188235 0.301961 0.419608
0.235294 0.427451 0.545098
0.290196 0.513726 0.619608
0.266667 0.435294 0.000000
0.156863 0.498039 0.305882
0.207843 0.498039 0.509804
0.215686 0.556863 0.662745
0.325490 0.568627 0.658824
0.356863 0.560784 0.023529
0.227451 0.674510 0.403922
0.270588 0.694118 0.631373
0.254902 0.737255 0.752941
0.203922 0.752941 0.803922
0.247059 0.631373 0.227451
0.227451 0.674510 0.403922
0.250980 0.815686 0.725490
0.254902 0.803922 0.792157
0.254902 0.803922 0.792157
0.560784 0.003922 0.117647
0.450980 0.066667 0.258824
0.345098 0.184314 0.349020
0.254902 0.325490 0.474510
0.439216 0.443137 0.560784
0.533333 0.223529 0.000000
0.509804 0.235294 0.282353
0.431373 0.333333 0.490196
0.439216 0.443137 0.560784
0.411765 0.580392 0.654902
0.411765 0.501961 0.000000
0.435294 0.517647 0.160784
0.454902 0.513726 0.478431
0.403922 0.572549 0.647059
0.419608 0.607843 0.686275
0.552941 0.596078 0.086275
0.388235 0.658824 0.168627
0.411765 0.780392 0.521569
0.482353 0.741176 0.725490
0.576471 0.792157 0.803922
0.478431 0.623529 0.109804
0.556863 0.717647 0.215686
0.513726 0.866667 0.584314
0.466667 0.862745 0.737255
0.596078 0.803922 0.819608
0.807843 0.011765 0.129412
0.831373 0.078431 0.239216
0.745098 0.278431 0.427451
0.745098 0.278431 0.427451
0.478431 0.462745 0.600000
0.909804 0.164706 0.066667
0.839216 0.211765 0.305882
0.745098 0.278431 0.427451
0.819608 0.447059 0.533333
0.603922 0.619608 0.666667
0.784314 0.462745 0.062745
0.843137 0.478431 0.196078
0.839216 0.470588 0.509804
0.749020 0.584314 0.678431
0.643137 0.733333 0.764706
0.760784 0.584314 0.078431
0.737255 0.752941 0.086275
0.749020 0.756863 0.368627
0.752941 0.745098 0.662745
0.729412 0.811765 0.784314
0.898039 0.792157 0.027451
0.898039 0.792157 0.027451
0.827451 0.866667 0.423529
0.670588 0.890196 0.650980
0.772549 0.913725 0.858824
0.956863 0.058824 0.047059
0.921569 0.223529 0.223529
0.945098 0.258824 0.286275
0.972549 0.392157 0.486275
0.917647 0.403922 0.529412
0.992157 0.223529 0.035294
0.945098 0.258824 0.286275
0.972549 0.392157 0.486275
0.980392 0.435294 0.509804
1.000000 0.592157 0.682353
1.000000 0.380392 0.000000
0.992157 0.450980 0.184314
0.984314 0.482353 0.486275
1.000000 0.592157 0.682353
0.980392 0.741176 0.772549
1.000000 0.431373 0.086275
1.000000 0.737255 0.164706
1.000000 0.682353 0.384314
0.996078 0.690196 0.674510
0.980392 0.741176 0.772549
0.898039 0.792157 0.027451
0.996078 0.843137 0.192157
0.996078 0.850980 0.333333
1.000000 0.913725 0.603922
1.000000 0.917647 0.796078
