apply_estimated_lut.cube
# Created by Advanced Python LUT Estimator
TITLE "Estimated LUT"
LUT_3D_SIZE 9
0.000000 0.066667 0.098039
0.000000 0.078431 0.172549
0.000000 0.101961 0.274510
0.000000 0.101961 0.274510
0.000000 0.168627 0.309804
0.054902 0.235294 0.376471
0.054902 0.235294 0.376471
0.054902 0.235294 0.376471
0.054902 0.235294 0.376471
0.000000 0.176471 0.125490
0.000000 0.149020 0.200000
0.000000 0.168627 0.274510
0.000000 0.168627 0.309804
0.054902 0.235294 0.376471
0.054902 0.235294 0.376471
0.054902 0.235294 0.376471
0.054902 0.235294 0.376471
0.141176 0.509804 0.607843
0.000000 0.274510 0.145098
0.000000 0.262745 0.227451
0.000000 0.250980 0.298039
0.000000 0.254902 0.376471
0.039216 0.270588 0.403922
0.003922 0.372549 0.482353
0.019608 0.431373 0.505882
0.019608 0.431373 0.505882
0.141176 0.509804 0.607843
0.000000 0.298039 0.121569
0.000000 0.356863 0.180392
0.019608 0.364706 0.321569
0.015686 0.356863 0.403922
0.000000 0.400000 0.486275
0.019608 0.431373 0.505882
0.058824 0.482353 0.584314
0.141176 0.509804 0.607843
0.141176 0.509804 0.607843
0.000000 0.356863 0.180392
0.011765 0.352941 0.215686
0.007843 0.443137 0.376471
0.000000 0.501961 0.450980
0.011765 0.482353 0.513726
0.043137 0.494118 0.568627
0.105882 0.564706 0.635294
0.145098 0.564706 0.635294
0.145098 0.564706 0.635294
0.035294 0.407843 0.149020
0.007843 0.443137 0.376471
0.047059 0.466667 0.403922
0.000000 0.545098 0.498039
0.019608 0.545098 0.541176
0.074510 0.576471 0.627451
0.109804 0.596078 0.643137
0.105882 0.631373 0.678431
0.203922 0.752941 0.803922
0.117647 0.494118 0.215686
0.082353 0.560784 0.376471
0.000000 0.545098 0.498039
0.031373 0.588235 0.533333
0.054902 0.650980 0.600000
0.125490 0.694118 0.666667
0.149020 0.674510 0.709804
0.203922 0.752941 0.803922
0.203922 0.752941 0.803922
0.082353 0.560784 0.376471
0.082353 0.560784 0.376471
0.031373 0.588235 0.533333
0.054902 0.650980 0.600000
0.125490 0.694118 0.666667
0.125490 0.694118 0.666667
0.164706 0.760784 0.701961
0.203922 0.752941 0.803922
0.203922 0.752941 0.803922
0.082353 0.560784 0.376471
0.082353 0.560784 0.376471
0.101961 0.635294 0.580392
0.125490 0.694118 0.666667
0.125490 0.694118 0.666667
0.164706 0.760784 0.701961
0.164706 0.760784 0.701961
0.203922 0.752941 0.803922
0.203922 0.752941 0.803922
0.086275 0.054902 0.062745
0.098039 0.054902 0.160784
0.039216 0.117647 0.247059
0.000000 0.101961 0.274510
0.054902 0.235294 0.376471
0.054902 0.235294 0.376471
0.054902 0.235294 0.376471
0.054902 0.235294 0.376471
0.054902 0.235294 0.376471
0.058824 0.156863 0.019608
0.066667 0.156863 0.176471
0.043137 0.149020 0.254902
0.058824 0.235294 0.349020
0.054902 0.235294 0.376471
0.054902 0.235294 0.376471
0.054902 0.235294 0.376471
0.054902 0.235294 0.376471
0.235294 0.427451 0.545098
0.015686 0.286275 0.039216
0.039216 0.262745 0.184314
0.058824 0.258824 0.274510
0.066667 0.262745 0.360784
0.054902 0.235294 0.376471
0.125490 0.349020 0.462745
0.137255 0.352941 0.470588
0.141176 0.509804 0.607843
0.141176 0.509804 0.607843
0.023529 0.345098 0.164706
0.023529 0.388235 0.168627
0.054902 0.372549 0.301961
0.109804 0.368627 0.403922
0.070588 0.372549 0.470588
0.098039 0.419608 0.505882
0.141176 0.509804 0.607843
0.141176 0.509804 0.607843
0.141176 0.509804 0.607843
0.035294 0.407843 0.149020
0.035294 0.407843 0.149020
0.043137 0.470588 0.317647
0.054902 0.486275 0.427451
0.094118 0.490196 0.521569
0.117647 0.521569 0.596078
0.141176 0.509804 0.607843
0.145098 0.564706 0.635294
0.184314 0.627451 0.690196
0.117647 0.494118 0.215686
0.117647 0.494118 0.215686
0.082353 0.560784 0.376471
0.098039 0.572549 0.513726
0.086275 0.623529 0.564706
0.117647 0.619608 0.643137
0.105882 0.631373 0.678431
0.203922 0.752941 0.803922
0.203922 0.752941 0.803922
0.117647 0.494118 0.215686
0.082353 0.560784 0.376471
0.082353 0.560784 0.376471
0.109804 0.603922 0.517647
0.101961 0.635294 0.580392
0.125490 0.694118 0.666667
0.149020 0.674510 0.709804
0.203922 0.752941 0.803922
0.203922 0.752941 0.803922
0.117647 0.494118 0.215686
0.082353 0.560784 0.376471
0.168627 0.623529 0.439216
0.145098 0.678431 0.584314
0.125490 0.694118 0.666667
0.164706 0.760784 0.701961
0.203922 0.752941 0.803922
0.203922 0.752941 0.803922
0.203922 0.752941 0.803922
0.227451 0.674510 0.403922
0.227451 0.674510 0.403922
0.227451 0.674510 0.403922
0.192157 0.721569 0.654902
0.164706 0.760784 0.701961
0.164706 0.760784 0.701961
0.254902 0.803922 0.792157
0.203922 0.752941 0.803922
0.203922 0.752941 0.803922
0.180392 0.047059 0.113725
0.172549 0.066667 0.196078
0.160784 0.082353 0.282353
0.160784 0.082353 0.282353
0.168627 0.211765 0.388235
0.168627 0.211765 0.388235
0.054902 0.235294 0.376471
0.054902 0.235294 0.376471
0.235294 0.427451 0.545098
0.239216 0.137255 0.003922
0.207843 0.145098 0.160784
0.168627 0.141176 0.231373
0.168627 0.211765 0.388235
0.168627 0.211765 0.388235
0.180392 0.254902 0.411765
0.172549 0.388235 0.509804
0.235294 0.427451 0.545098
0.290196 0.513726 0.619608
0.156863 0.274510 0.000000
0.152941 0.266667 0.133333
0.164706 0.258824 0.274510
0.164706 0.266667 0.364706
0.188235 0.301961 0.419608
0.172549 0.388235 0.509804
0.235294 0.427451 0.545098
0.250980 0.462745 0.572549
0.290196 0.513726 0.619608
0.184314 0.376471 0.000000
0.121569 0.392157 0.125490
0.149020 0.388235 0.270588
0.180392 0.380392 0.396078
0.180392 0.380392 0.478431
0.200000 0.435294 0.537255
0.250980 0.462745 0.572549
0.290196 0.513726 0.619608
0.321569 0.541176 0.639216
0.266667 0.435294 0.000000
0.125490 0.494118 0.149020
0.156863 0.498039 0.305882
0.168627 0.505882 0.415686
0.207843 0.498039 0.509804
0.207843 0.494118 0.584314
0.215686 0.556863 0.662745
0.219608 0.635294 0.686275
0.325490 0.568627 0.658824
0.125490 0.494118 0.149020
0.117647 0.494118 0.215686
0.184314 0.603922 0.329412
0.152941 0.631373 0.427451
0.192157 0.631373 0.545098
0.211765 0.615686 0.639216
0.219608 0.635294 0.686275
0.254902 0.713726 0.749020
0.203922 0.752941 0.803922
0.356863 0.560784 0.023529
0.247059 0.631373 0.227451
0.227451 0.674510 0.403922
0.227451 0.674510 0.403922
0.270588 0.694118 0.631373
0.219608 0.745098 0.662745
0.254902 0.737255 0.752941
0.203922 0.752941 0.803922
0.203922 0.752941 0.803922
0.247059 0.631373 0.227451
0.227451 0.674510 0.403922
0.227451 0.674510 0.403922
0.274510 0.717647 0.498039
0.192157 0.721569 0.654902
0.250980 0.815686 0.725490
0.254902 0.803922 0.792157
0.254902 0.803922 0.792157
0.203922 0.752941 0.803922
0.247059 0.631373 0.227451
0.227451 0.674510 0.403922
0.227451 0.674510 0.403922
0.294118 0.752941 0.486275
0.250980 0.815686 0.725490
0.250980 0.815686 0.725490
0.254902 0.803922 0.792157
0.254902 0.803922 0.792157
0.254902 0.803922 0.792157
0.396078 0.011765 0.121569
0.349020 0.058824 0.188235
0.376471 0.090196 0.258824
0.207843 0.156863 0.274510
0.168627 0.211765 0.388235
0.168627 0.211765 0.388235
0.254902 0.325490 0.474510
0.254902 0.325490 0.474510
0.266667 0.415686 0.560784
0.400000 0.125490 0.023529
0.364706 0.121569 0.172549
0.337255 0.129412 0.294118
0.345098 0.184314 0.349020
0.168627 0.211765 0.388235
0.254902 0.325490 0.474510
0.254902 0.325490 0.474510
0.266667 0.415686 0.560784
0.290196 0.513726 0.619608
0.364706 0.250980 0.000000
0.337255 0.247059 0.105882
0.341176 0.250980 0.243137
0.290196 0.250980 0.364706
0.254902 0.325490 0.474510
0.254902 0.325490 0.474510
0.266667 0.415686 0.560784
0.290196 0.513726 0.619608
0.321569 0.541176 0.639216
0.290196 0.392157 0.000000
0.290196 0.388235 0.094118
0.298039 0.384314 0.219608
0.309804 0.388235 0.388235
0.286275 0.392157 0.478431
0.266667 0.415686 0.560784
0.290196 0.513726 0.619608
0.321569 0.541176 0.639216
0.411765 0.580392 0.654902
0.368627 0.498039 0.000000
0.258824 0.529412 0.125490
0.239216 0.533333 0.235294
0.282353 0.513726 0.403922
0.313726 0.509804 0.501961
0.313726 0.509804 0.580392
0.321569 0.541176 0.639216
0.411765 0.580392 0.654902
0.411765 0.580392 0.654902
0.356863 0.560784 0.023529
0.247059 0.631373 0.227451
0.247059 0.631373 0.227451
0.258824 0.643137 0.396078
0.305882 0.639216 0.525490
0.329412 0.635294 0.627451
0.341176 0.631373 0.682353
0.392157 0.596078 0.682353
0.419608 0.607843 0.686275
0.356863 0.560784 0.023529
0.247059 0.631373 0.227451
0.321569 0.682353 0.341176
0.274510 0.717647 0.498039
0.286275 0.756863 0.529412
0.313726 0.749020 0.658824
0.352941 0.741176 0.752941
0.372549 0.745098 0.760784
0.576471 0.792157 0.803922
0.356863 0.560784 0.023529
0.388235 0.658824 0.168627
0.227451 0.674510 0.403922
0.294118 0.752941 0.486275
0.380392 0.803922 0.568627
0.380392 0.807843 0.686275
0.360784 0.839216 0.796078
0.372549 0.815686 0.807843
0.596078 0.803922 0.819608
0.388235 0.658824 0.168627
0.388235 0.658824 0.168627
0.294118 0.752941 0.486275
0.380392 0.803922 0.568627
0.380392 0.807843 0.686275
0.380392 0.807843 0.686275
0.380392 0.839216 0.776471
0.380392 0.839216 0.776471
0.596078 0.803922 0.819608
0.560784 0.003922 0.117647
0.607843 0.039216 0.192157
0.450980 0.066667 0.258824
0.345098 0.184314 0.349020
0.345098 0.184314 0.349020
0.341176 0.305882 0.419608
0.254902 0.325490 0.474510
0.439216 0.443137 0.560784
0.439216 0.443137 0.560784
0.572549 0.105882 0.027451
0.576471 0.086275 0.203922
0.439216 0.149020 0.294118
0.345098 0.184314 0.349020
0.403922 0.262745 0.372549
0.431373 0.333333 0.490196
0.439216 0.443137 0.560784
0.439216 0.443137 0.560784
0.439216 0.443137 0.560784
0.533333 0.223529 0.000000
0.529412 0.215686 0.149020
0.509804 0.235294 0.282353
0.490196 0.239216 0.392157
0.431373 0.333333 0.490196
0.403922 0.400000 0.564706
0.439216 0.443137 0.560784
0.439216 0.443137 0.560784
0.411765 0.580392 0.654902
0.494118 0.376471 0.003922
0.498039 0.360784 0.066667
0.494118 0.372549 0.192157
0.494118 0.372549 0.356863
0.454902 0.372549 0.490196
0.439216 0.443137 0.560784
0.478431 0.462745 0.600000
0.411765 0.580392 0.654902
0.411765 0.580392 0.654902
0.411765 0.501961 0.000000
0.450980 0.517647 0.015686
0.435294 0.517647 0.160784
0.439216 0.509804 0.325490
0.454902 0.513726 0.478431
0.443137 0.509804 0.568627
0.403922 0.572549 0.647059
0.419608 0.607843 0.686275
0.419608 0.607843 0.686275
0.356863 0.560784 0.023529
0.423529 0.572549 0.035294
0.384314 0.658824 0.192157
0.388235 0.650980 0.333333
0.427451 0.643137 0.505882
0.458824 0.627451 0.627451
0.462745 0.639216 0.682353
0.501961 0.666667 0.713726
0.525490 0.694118 0.756863
0.552941 0.596078 0.086275
0.509804 0.639216 0.078431
0.388235 0.658824 0.168627
0.411765 0.705882 0.333333
0.411765 0.780392 0.521569
0.450980 0.749020 0.623529
0.482353 0.741176 0.725490
0.478431 0.745098 0.772549
0.576471 0.792157 0.803922
0.478431 0.623529 0.109804
0.556863 0.709804 0.141176
0.556863 0.717647 0.215686
0.380392 0.803922 0.568627
0.470588 0.835294 0.560784
0.435294 0.819608 0.666667
0.478431 0.854902 0.745098
0.498039 0.847059 0.800000
0.596078 0.803922 0.819608
0.478431 0.623529 0.109804
0.556863 0.709804 0.141176
0.556863 0.717647 0.215686
0.470588 0.835294 0.560784
0.513726 0.866667 0.584314
0.513726 0.866667 0.584314
0.466667 0.862745 0.737255
0.525490 0.831373 0.776471
0.596078 0.803922 0.819608
0.788235 0.007843 0.098039
0.729412 0.019608 0.180392
0.752941 0.027451 0.200000
0.733333 0.129412 0.262745
0.647059 0.180392 0.329412
0.431373 0.333333 0.490196
0.431373 0.333333 0.490196
0.439216 0.443137 0.560784
0.439216 0.443137 0.560784
0.760784 0.058824 0.070588
0.749020 0.066667 0.188235
0.733333 0.129412 0.262745
0.647059 0.180392 0.329412
0.745098 0.278431 0.427451
0.431373 0.333333 0.490196
0.439216 0.443137 0.560784
0.478431 0.462745 0.600000
0.478431 0.462745 0.600000
0.729412 0.211765 0.019608
0.725490 0.192157 0.160784
0.713726 0.200000 0.313726
0.670588 0.243137 0.396078
0.745098 0.278431 0.427451
0.615686 0.423529 0.541176
0.478431 0.462745 0.600000
0.478431 0.462745 0.600000
0.498039 0.498039 0.607843
0.639216 0.356863 0.003922
0.705882 0.345098 0.094118
0.682353 0.345098 0.243137
0.694118 0.345098 0.400000
0.596078 0.364706 0.486275
0.615686 0.423529 0.541176
0.498039 0.498039 0.607843
0.603922 0.619608 0.666667
0.603922 0.619608 0.666667
0.556863 0.521569 0.023529
0.658824 0.494118 0.031373
0.658824 0.494118 0.164706
0.647059 0.490196 0.305882
0.619608 0.494118 0.462745
0.615686 0.498039 0.596078
0.509804 0.584314 0.639216
0.603922 0.619608 0.666667
0.525490 0.694118 0.756863
0.552941 0.596078 0.086275
0.576471 0.635294 0.070588
0.596078 0.635294 0.141176
0.596078 0.635294 0.274510
0.619608 0.623529 0.439216
0.564706 0.643137 0.639216
0.600000 0.631373 0.662745
0.568627 0.694118 0.737255
0.631373 0.752941 0.760784
0.552941 0.596078 0.086275
0.698039 0.643137 0.050980
0.556863 0.709804 0.141176
0.588235 0.756863 0.294118
0.545098 0.772549 0.443137
0.576471 0.756863 0.568627
0.607843 0.741176 0.694118
0.619608 0.745098 0.752941
0.631373 0.788235 0.796078
0.698039 0.643137 0.050980
0.705882 0.737255 0.156863
0.705882 0.737255 0.156863
0.701961 0.788235 0.290196
0.470588 0.835294 0.560784
0.549020 0.866667 0.615686
0.596078 0.850980 0.694118
0.607843 0.835294 0.776471
0.639216 0.819608 0.807843
0.898039 0.792157 0.027451
0.898039 0.792157 0.027451
0.741176 0.788235 0.215686
0.525490 0.901961 0.623529
0.525490 0.901961 0.623529
0.525490 0.901961 0.623529
0.545098 0.898039 0.749020
0.674510 0.917647 0.756863
0.721569 0.894118 0.827451
0.807843 0.011765 0.129412
0.807843 0.011765 0.129412
0.831373 0.078431 0.239216
0.733333 0.129412 0.262745
0.745098 0.278431 0.427451
0.745098 0.278431 0.427451
0.745098 0.278431 0.427451
0.478431 0.462745 0.600000
0.478431 0.462745 0.600000
0.937255 0.054902 0.054902
0.968627 0.094118 0.176471
0.854902 0.149020 0.262745
0.733333 0.239216 0.384314
0.745098 0.278431 0.427451
0.745098 0.278431 0.427451
0.615686 0.423529 0.541176
0.478431 0.462745 0.600000
0.498039 0.498039 0.607843
0.909804 0.164706 0.066667
0.898039 0.188235 0.192157
0.839216 0.211765 0.305882
0.835294 0.325490 0.427451
0.745098 0.278431 0.427451
0.886275 0.356863 0.486275
0.819608 0.447059 0.533333
0.749020 0.584314 0.678431
0.603922 0.619608 0.666667
0.780392 0.337255 0.007843
0.878431 0.345098 0.113725
0.886275 0.329412 0.250980
0.850980 0.337255 0.419608
0.886275 0.356863 0.486275
0.819608 0.447059 0.533333
0.749020 0.584314 0.678431
0.749020 0.584314 0.678431
0.603922 0.619608 0.666667
0.784314 0.462745 0.062745
0.847059 0.478431 0.062745
0.843137 0.478431 0.196078
0.839216 0.478431 0.337255
0.839216 0.470588 0.509804
0.741176 0.529412 0.580392
0.749020 0.584314 0.678431
0.749020 0.584314 0.678431
0.643137 0.733333 0.764706
0.760784 0.584314 0.078431
0.803922 0.619608 0.074510
0.827451 0.611765 0.125490
0.800000 0.615686 0.278431
0.800000 0.615686 0.427451
0.780392 0.619608 0.556863
0.741176 0.615686 0.686275
0.643137 0.733333 0.764706
0.776471 0.752941 0.760784
0.760784 0.584314 0.078431
0.776471 0.666667 0.031373
0.737255 0.752941 0.086275
0.741176 0.756863 0.235294
0.749020 0.756863 0.368627
0.741176 0.745098 0.525490
0.752941 0.745098 0.662745
0.729412 0.745098 0.752941
0.729412 0.811765 0.784314
0.898039 0.792157 0.027451
0.898039 0.792157 0.027451
0.898039 0.792157 0.027451
0.737255 0.784314 0.243137
0.713726 0.862745 0.411765
0.690196 0.862745 0.545098
0.725490 0.854902 0.658824
0.737255 0.839216 0.752941
0.768627 0.835294 0.796078
0.898039 0.792157 0.027451
0.898039 0.792157 0.027451
0.898039 0.792157 0.027451
0.854902 0.850980 0.286275
0.827451 0.866667 0.423529
0.705882 0.874510 0.560784
0.670588 0.890196 0.650980
0.721569 0.941176 0.788235
0.772549 0.913725 0.858824
0.956863 0.058824 0.047059
0.968627 0.094118 0.176471
0.968627 0.094118 0.176471
0.921569 0.223529 0.223529
0.835294 0.325490 0.427451
0.835294 0.325490 0.427451
0.917647 0.403922 0.529412
0.917647 0.403922 0.529412
0.749020 0.584314 0.678431
0.956863 0.058824 0.047059
0.968627 0.094118 0.176471
0.921569 0.223529 0.223529
0.894118 0.305882 0.341176
0.835294 0.325490 0.427451
0.886275 0.356863 0.486275
0.917647 0.403922 0.529412
0.917647 0.403922 0.529412
0.749020 0.584314 0.678431
0.988235 0.196078 0.047059
0.980392 0.196078 0.203922
0.945098 0.258824 0.286275
0.835294 0.325490 0.427451
0.945098 0.415686 0.470588
0.917647 0.403922 0.529412
0.917647 0.403922 0.529412
0.749020 0.584314 0.678431
0.749020 0.584314 0.678431
0.917647 0.317647 0.011765
0.976471 0.309804 0.129412
0.968627 0.317647 0.262745
0.925490 0.313726 0.411765
0.945098 0.415686 0.470588
0.917647 0.403922 0.529412
0.980392 0.482353 0.564706
0.749020 0.584314 0.678431
0.749020 0.584314 0.678431
1.000000 0.407843 0.094118
0.941176 0.454902 0.098039
0.992157 0.458824 0.215686
0.984314 0.462745 0.349020
0.976471 0.454902 0.509804
0.980392 0.482353 0.564706
0.992157 0.545098 0.584314
0.749020 0.584314 0.678431
0.776471 0.752941 0.760784
0.760784 0.584314 0.078431
0.901961 0.592157 0.035294
0.952941 0.600000 0.145098
0.976471 0.600000 0.278431
0.972549 0.596078 0.458824
0.949020 0.596078 0.600000
0.831373 0.674510 0.674510
0.823529 0.733333 0.756863
0.776471 0.752941 0.760784
0.898039 0.792157 0.027451
0.898039 0.792157 0.027451
0.925490 0.729412 0.074510
0.937255 0.733333 0.219608
0.933333 0.729412 0.368627
0.937255 0.733333 0.529412
0.890196 0.721569 0.678431
0.862745 0.776471 0.784314
0.870588 0.823529 0.760784
0.898039 0.792157 0.027451
0.898039 0.792157 0.027451
0.917647 0.780392 0.050980
0.894118 0.803922 0.184314
0.870588 0.847059 0.345098
0.870588 0.847059 0.501961
0.878431 0.831373 0.615686
0.870588 0.827451 0.721569
0.850980 0.850980 0.811765
0.898039 0.792157 0.027451
0.898039 0.792157 0.027451
0.917647 0.780392 0.050980
0.996078 0.843137 0.192157
0.925490 0.929412 0.458824
0.854902 0.882353 0.505882
0.898039 0.890196 0.600000
0.827451 0.945098 0.745098
0.870588 0.929412 0.819608
0.956863 0.058824 0.047059
0.968627 0.094118 0.176471
0.921569 0.223529 0.223529
0.945098 0.258824 0.286275
0.945098 0.258824 0.286275
0.972549 0.392157 0.486275
0.972549 0.392157 0.486275
0.917647 0.403922 0.529412
0.917647 0.403922 0.529412
0.988235 0.196078 0.047059
0.976471 0.215686 0.168627
0.945098 0.258824 0.286275
0.945098 0.258824 0.286275
0.972549 0.392157 0.486275
0.972549 0.392157 0.486275
0.972549 0.392157 0.486275
0.980392 0.482353 0.564706
0.749020 0.584314 0.678431
0.992157 0.223529 0.035294
0.988235 0.305882 0.098039
0.945098 0.258824 0.286275
0.988235 0.345098 0.309804
0.972549 0.392157 0.486275
0.972549 0.392157 0.486275
0.980392 0.435294 0.509804
0.992157 0.545098 0.584314
1.000000 0.592157 0.682353
0.996078 0.333333 0.007843
0.988235 0.305882 0.098039
0.996078 0.309804 0.235294
1.000000 0.372549 0.364706
0.972549 0.392157 0.486275
0.972549 0.392157 0.486275
0.992157 0.545098 0.584314
1.000000 0.592157 0.682353
1.000000 0.592157 0.682353
1.000000 0.380392 0.000000
1.000000 0.423529 0.070588
0.992157 0.450980 0.184314
1.000000 0.439216 0.356863
0.984314 0.482353 0.486275
1.000000 0.517647 0.525490
1.000000 0.592157 0.682353
1.000000 0.592157 0.682353
0.980392 0.741176 0.772549
1.000000 0.431373 0.086275
1.000000 0.478431 0.137255
1.000000 0.560784 0.145098
1.000000 0.568627 0.290196
0.996078 0.572549 0.466667
1.000000 0.584314 0.584314
1.000000 0.592157 0.682353
0.980392 0.741176 0.772549
0.980392 0.741176 0.772549
1.000000 0.431373 0.086275
0.898039 0.792157 0.027451
1.000000 0.737255 0.164706
1.000000 0.705882 0.243137
1.000000 0.682353 0.384314
0.992157 0.694118 0.529412
0.996078 0.690196 0.674510
0.980392 0.741176 0.772549
0.980392 0.741176 0.772549
0.898039 0.792157 0.027451
0.898039 0.792157 0.027451
1.000000 0.737255 0.164706
0.996078 0.843137 0.192157
0.996078 0.819608 0.325490
0.996078 0.811765 0.470588
1.000000 0.796078 0.615686
1.000000 0.811765 0.741176
1.000000 0.815686 0.807843
0.898039 0.792157 0.027451
0.898039 0.792157 0.027451
0.996078 0.843137 0.192157
1.000000 0.858824 0.235294
0.996078 0.850980 0.333333
0.925490 0.960784 0.509804
1.000000 0.913725 0.603922
0.996078 0.905882 0.729412
1.000000 0.917647 0.796078
